!! 00000] TT[00
!! NN
!!!OTL: Cheng ji si han song ge
!!!ARE: Neimeng Xilingele
!! Ethnic Group: Menggu
!! IV, 321
!!!SCT: C0419
!!!YEM: Copyright 1995, estate of Helmut Schaffrath.
**kern
*ICvox
*Ivox
!! Mixed meters:  3/4; 2/4; 4/4
*M3/4
*k[b-e-]
*B-:
{2.cc
=1
[2cc]
8cc]
8g
=2
[2.f
=3
2.f]}
=4
{4b-
[2cc
=5
2cc]
8cc
8ff
=6
8.f
16f
2f}
=7
{2ff
8gg
8aa
=8
8ccc
4aa
16gg
16aa
4ccc
=9
[2ccc]
8ccc]}
{16ccc
16fff
=10
8aa
24gg
24aa
24gg
12ccc
12aa
12gg
=11
2.ff
=12
[2ff]
8ff]
24gg
24aa
24gg
=13
8dd
8ff
[2cc
=14
2.cc]}
=15
{[2.f
=16
8f]
8a
8cc
8dd
4ff
=17
*M4/4
4cc
12a
12g
12a
2cc}
=18
{4r
[2ff
8ff]
16gg
16aa
=19
8ccc
24ddd
24ccc
24ddd
4.fff
16ddd
16fff
12ccc
12ddd
12fff
=20
*M3/4
[2ccc
8ccc]
8r}
=21
{4a
8cc
8a
8g
8a
=22
2.cc
=23
*M4/4
4f
2.f}
=24
*M2/4
{4ff
8gg
8aa
=25
*M3/4
8ccc
4aa
16gg
16aa
4ccc
=26
*M4/4
4ccc
8ccc
8ccc
8aa
24gg
24aa
24gg
12ccc
12aa
12gg}
=27
*M3/4
{8.ff
16ff
2ff
=28
[2ff]
8ff]
24gg
24aa
24gg
=29
8ff
8aa
2cc}
=30
{4d
[2f
=31
8f]
8a
8cc
8dd
4ff
=32
*M4/4
4cc
12a
12g
12a
2cc}
=33
*M3/4
{[2ff
8ff]
16gg
16aa
=34
8ccc
24ddd
24ccc
24ddd
8fff
16ddd
16fff
12ccc
12ddd
12fff
=35
2ccc
8ccc
8r}
=36
{4a
8cc
8a
8g
8a
=37
2cc
4cc
=38
4f
2f}
=39
{4ff
8gg
8aa
8ccc
8aa
=40
[2ccc
8ccc]
8ccc
=41
8aa
24gg
24aa
24gg
12ccc
12aa
12gg}
{4ff
2ff
=42
[2ff]
8ff]
24gg
24aa
24gg
=43
8dd
8ff
2cc}
=44
*M2/4
{[2f
=45
*M3/4
8f]
8a
8cc
8dd
4ff
=46
*M4/4
4cc
12aa
12gg
12aa
2cc}
=47
*M3/4
{8dd
8ff
12gg
12aa
12ccc
12aa
12gg
12aa
=48
12ccc
12ddd
12fff
8ddd
8fff
12ccc
12ddd
12fff
=49
[2ccc
8ccc]
8r}
==
!!!AGN: Song ge. Zansong minzu yingxong Chengjisihan.
!! Bordun! doppelt oktaviert. Es singen 2 Leute.
!!    Bordun weggelassen, nur die Oberstimme kodiert.
!!    Um der Uebersichtlichkeit willen ist das ganze Lied 1 Oktave tiefer
!!    transponiert. Auch die Phrasierung beider Stimmen ist weitgehend
!!    parallel. +++ Grundton wechselt von B nach F!! +++
!!    Einige Verzierungen, Atemzeichen.
!!!ONB: ESAC (Essen Associative Code) Database: CHINA
!!!AMT: irregular
!!!AIN: vox
!!!EED: Helmut Schaffrath
!!!EEV: 1.0
*-
!!!ONB: Tied note syntax fixed by Craig Sapp, 2004/05/03/
